X: 1684
T: Manchester Hornpipe
B: australian traditional tunes wiki
M:C
L:1/8
R: Hornpipe
Q: 1/4=100
K:D
V:1 
fe|:"D"dcdA FAdf|"A7"edcd "G"B2de|"D"fefa "G"gfed|"A7"cdcB A2fe|
"D"dcdA FAdf|"A7"edcd"G"B2g2|"D"afdf "A7"(g/f/e)cA|1"D"d2f2d2fe:|2"D"d2f2d2fg|:
"D"afdf afdf|"G"gfgbB2g2|"D"fdfa fdfa|"A7"(g/f/e)cB A2g2|
"D"fdfa fdfa|"G"gfgbB2g2|"D"afdf "A7"g/f/ecA|1"D"d2f2d2fg:|2"D"d2f2d4||
% abcbook-tune_id 6342d53a511aa8ed3f2fa1d7


% abcbook-boost 0
% abcbook-tablature 
% abcbook-transpose 
% abcbook-lastupdated 1665324377819
% abcbook-soundfonts 
% abcbook-repeats 1
% NFF Book 2010

